src/icons/instagram-icon.svg

<svg width="45" height="45" viewBox="0 0 45 45" fill="none" xmlns="http://www.w3.org/2000/svg">
<circle cx="22.5" cy="22.5" r="22.5" fill="#9D74D3"/>
<path d="M18.22 14H25.78C28.66 14 31 16.34 31 19.22V26.78C31 28.1644 30.45 29.4922 29.4711 30.4711C28.4922 31.45 27.1644 32 25.78 32H18.22C15.34 32 13 29.66 13 26.78V19.22C13 17.8356 13.55 16.5078 14.5289 15.5289C15.5078 14.55 16.8356 14 18.22 14ZM18.04 15.8C17.1807 15.8 16.3566 16.1414 15.749 16.749C15.1414 17.3566 14.8 18.1807 14.8 19.04V26.96C14.8 28.751 16.249 30.2 18.04 30.2H25.96C26.8193 30.2 27.6434 29.8586 28.251 29.251C28.8586 28.6434 29.2 27.8193 29.2 26.96V19.04C29.2 17.249 27.751 15.8 25.96 15.8H18.04ZM26.725 17.15C27.0234 17.15 27.3095 17.2685 27.5205 17.4795C27.7315 17.6905 27.85 17.9766 27.85 18.275C27.85 18.5734 27.7315 18.8595 27.5205 19.0705C27.3095 19.2815 27.0234 19.4 26.725 19.4C26.4266 19.4 26.1405 19.2815 25.9295 19.0705C25.7185 18.8595 25.6 18.5734 25.6 18.275C25.6 17.9766 25.7185 17.6905 25.9295 17.4795C26.1405 17.2685 26.4266 17.15 26.725 17.15ZM22 18.5C23.1935 18.5 24.3381 18.9741 25.182 19.818C26.0259 20.6619 26.5 21.8065 26.5 23C26.5 24.1935 26.0259 25.3381 25.182 26.182C24.3381 27.0259 23.1935 27.5 22 27.5C20.8065 27.5 19.6619 27.0259 18.818 26.182C17.9741 25.3381 17.5 24.1935 17.5 23C17.5 21.8065 17.9741 20.6619 18.818 19.818C19.6619 18.9741 20.8065 18.5 22 18.5ZM22 20.3C21.2839 20.3 20.5972 20.5845 20.0908 21.0908C19.5845 21.5972 19.3 22.2839 19.3 23C19.3 23.7161 19.5845 24.4028 20.0908 24.9092C20.5972 25.4155 21.2839 25.7 22 25.7C22.7161 25.7 23.4028 25.4155 23.9092 24.9092C24.4155 24.4028 24.7 23.7161 24.7 23C24.7 22.2839 24.4155 21.5972 23.9092 21.0908C23.4028 20.5845 22.7161 20.3 22 20.3Z" fill="white"/>
</svg>

<svg xmlns="http://www.w3.org/2000/svg" width="45" height="45" fill="none"><circle cx="22.5" cy="22.5" r="22.5" fill="#9d74d3"/><path d="M18.22 14h7.56c2.88 0 5.22 2.34 5.22 5.22v7.56A5.22 5.22 0 0 1 25.78 32h-7.56C15.34 32 13 29.66 13 26.78v-7.56A5.22 5.22 0 0 1 18.22 14zm-.18 1.8a3.24 3.24 0 0 0-3.24 3.24v7.92a3.24 3.24 0 0 0 3.24 3.24h7.92a3.24 3.24 0 0 0 3.24-3.24v-7.92a3.24 3.24 0 0 0-3.24-3.24h-7.92zm8.685 1.35c.298 0 .584.119.795.33s.33.497.33.795-.119.585-.33.796-.497.329-.795.329-.585-.118-.796-.329-.329-.497-.329-.796.118-.584.329-.795.497-.33.796-.33zM22 18.5a4.5 4.5 0 0 1 4.5 4.5 4.5 4.5 0 0 1-4.5 4.5 4.5 4.5 0 0 1-4.5-4.5 4.5 4.5 0 0 1 4.5-4.5zm0 1.8a2.7 2.7 0 0 0-2.7 2.7 2.7 2.7 0 0 0 2.7 2.7 2.7 2.7 0 0 0 2.7-2.7 2.7 2.7 0 0 0-2.7-2.7z" fill="#fff"/></svg>
